X:373
T:Jonathan's Jig
M:6/8
L:1/8
S:Colin Hume's website,  colinhume.com  - chords can also be printed below the stave.
Q:3/8=112
C:Colin Hume, 1998
H:For Jonathan Macemon
K:D
P:A
|: "D"D2D D2F | "D"A2F D2A | "G"B2G D2B | "A7"cBA GFE | "D"D2D D2F | "D"A2F D2A |
"G"B2G Bcd | "A"e3- edc | "G"B2B "Em"Bcd | "D"A2G "Bm"F2D | "Em"E3 "A7"A3 |1 "D"D3 "A7"A,B,C :|2 "D"D3- D3 |
P:B
|: "Bm"B2c dcB | "F#m"c3 A3 | "G"G2A BAG | "D"A3 D3 | "A7"E2F GFE | "D"F2G A3 |
"E7"^G2A BAG | "A"A2B "A7"c3 | "D"d2e "G"dcB | "D"A2B "Bm"AGF | "Em"EGF "A7"EDC | "D"D3- D3 :|

